app/img/partner-11.svg

<svg width="230" height="45" viewBox="0 0 230 45" fill="none" xmlns="http://www.w3.org/2000/svg">
<path d="M84.3807 21.5864H81.3554V15.8176H75.0046V21.5864H71.9792V7.56958H75.0046V13.2431H81.3554V7.56958H84.3807V21.5864Z" fill="#00F0FF"/>
<path d="M95.4316 11.4076H98.257V21.5865H95.4316L95.3316 20.1562H95.2316C95.2316 20.1562 94.2315 21.8964 91.7062 21.8964C88.8808 21.8964 86.5806 19.6795 86.5806 16.509C86.5806 13.3385 88.9058 11.1216 91.7062 11.1216C94.2315 11.1216 95.2316 12.8618 95.2316 12.8618H95.3316L95.4316 11.4076ZM92.5063 13.6246C90.9061 13.6246 89.5809 14.7688 89.5809 16.509C89.5809 18.2492 90.8811 19.3934 92.5063 19.3934C94.0065 19.3934 95.3316 18.2492 95.3316 16.509C95.3316 14.7688 94.0065 13.6246 92.5063 13.6246Z" fill="#00F0FF"/>
<path d="M100.882 21.5864V11.4075H103.807V19.0834H108.133V11.4075H111.058V19.0834H112.658V24.1847H109.733V21.5864H100.882Z" fill="#00F0FF"/>
<path d="M118.259 21.5864H114.683V11.4075H117.584V18.2729L121.759 11.4075H125.335V21.5864H122.409V14.721L118.259 21.5864Z" fill="#00F0FF"/>
<path d="M133.311 21.8724C129.686 21.8724 127.361 19.5601 127.361 16.485C127.361 13.4098 129.686 11.0975 133.311 11.0975C136.937 11.0975 139.262 13.4098 139.262 16.485C139.262 19.5601 136.937 21.8724 133.311 21.8724ZM133.311 19.3694C134.912 19.3694 136.237 18.2251 136.237 16.485C136.237 14.7448 134.937 13.6005 133.311 13.6005C131.686 13.6005 130.386 14.7448 130.386 16.485C130.386 18.2251 131.711 19.3694 133.311 19.3694Z" fill="#00F0FF"/>
<path d="M144.188 17.6531V21.5864H141.263V11.4075H144.188V15.1501H148.814V11.4075H151.739V21.5864H148.814V17.6531H144.188Z" fill="#00F0FF"/>
<path d="M162.664 11.4076H165.489V21.5865H162.664L162.564 20.1562H162.464C162.464 20.1562 161.464 21.8964 158.939 21.8964C156.113 21.8964 153.813 19.6795 153.813 16.509C153.813 13.3385 156.138 11.1216 158.939 11.1216C161.464 11.1216 162.464 12.8618 162.464 12.8618H162.564L162.664 11.4076ZM159.739 13.6246C158.139 13.6246 156.813 14.7688 156.813 16.509C156.813 18.2492 158.114 19.3934 159.739 19.3934C161.239 19.3934 162.564 18.2492 162.564 16.509C162.564 14.7688 161.264 13.6246 159.739 13.6246Z" fill="#00F0FF"/>
<path d="M172.042 16.652C171.717 20.0132 170.441 21.2528 167.616 21.5388L167.116 19.0358C168.266 18.9405 168.991 18.273 169.141 16.6282L169.691 11.3838H178.342V21.5865H175.417V13.8153H172.392L172.042 16.652Z" fill="#00F0FF"/>
<path d="M181.144 11.4075H184.069V14.4826H186.094C188.919 14.4826 190.42 15.9129 190.42 18.0345C190.42 20.1561 188.919 21.5864 186.094 21.5864H181.169V11.4075H181.144ZM185.894 19.2741C186.894 19.2741 187.494 18.7973 187.494 18.0345C187.494 17.2717 186.894 16.7949 185.894 16.7949H184.069V19.2979H185.894V19.2741Z" fill="#00F0FF"/>
<path d="M195.344 17.6531V21.5864H192.419V11.4075H195.344V15.1501H199.969V11.4075H202.895V21.5864H199.969V17.6531H195.344Z" fill="#00F0FF"/>
<path d="M214.095 11.4076H216.92V21.5865H214.095L213.995 20.1562H213.895C213.895 20.1562 212.895 21.8964 210.369 21.8964C207.544 21.8964 205.244 19.6795 205.244 16.509C205.244 13.3385 207.569 11.1216 210.369 11.1216C212.895 11.1216 213.895 12.8618 213.895 12.8618H213.995L214.095 11.4076ZM211.169 13.6246C209.569 13.6246 208.244 14.7688 208.244 16.509C208.244 18.2492 209.544 19.3934 211.169 19.3934C212.67 19.3934 213.995 18.2492 213.995 16.509C213.995 14.7688 212.67 13.6246 211.169 13.6246Z" fill="#00F0FF"/>
<path d="M219.396 14.864C219.396 12.8378 220.897 11.4075 223.522 11.4075H229.098V21.5864H226.172V18.3205H224.622L221.772 21.5864H218.296L221.622 18.0345V17.9391C221.622 17.9391 219.396 17.2717 219.396 14.864ZM224.022 13.6244C223.022 13.6244 222.422 14.1012 222.422 14.864C222.422 15.6268 223.022 16.1036 224.022 16.1036H226.147V13.6244H224.022Z" fill="#00F0FF"/>
<path d="M75.1048 35.4367C74.7797 38.7979 73.5046 40.0374 70.6793 40.3235L70.1792 37.8205C71.3293 37.7251 72.0544 37.0577 72.2044 35.4128L72.7045 29.8347H81.3555V40.0136H78.4302V32.2424H75.4048L75.1048 35.4367Z" fill="#00F0FF"/>
<path d="M89.6054 40.3232C85.9799 40.3232 83.6547 38.0109 83.6547 34.9358C83.6547 31.8606 85.9799 29.5483 89.6054 29.5483C93.2308 29.5483 95.5561 31.8606 95.5561 34.9358C95.5561 38.0347 93.2308 40.3232 89.6054 40.3232ZM89.6054 37.844C91.2056 37.844 92.5307 36.6998 92.5307 34.9596C92.5307 33.2194 91.2306 32.0752 89.6054 32.0752C88.0052 32.0752 86.68 33.2194 86.68 34.9596C86.705 36.676 88.0052 37.844 89.6054 37.844Z" fill="#00F0FF"/>
<path d="M96.5579 32.361V29.858H106.534V32.361H103.009V40.0369H100.083V32.361H96.5579Z" fill="#00F0FF"/>
<path d="M118.485 34.7689V35.5317H110.334C110.534 36.8667 111.634 37.9155 113.659 37.9155C116.285 37.9155 117.385 36.7713 117.385 36.7713H117.685V39.179C117.685 39.179 116.085 40.3232 113.359 40.3232C109.934 40.3232 107.609 38.1062 107.609 34.9358C107.609 31.8606 110.034 29.5483 113.259 29.5483C116.485 29.5722 118.485 31.5031 118.485 34.7689ZM110.434 33.72H115.785C115.785 32.7665 114.884 31.9798 113.459 31.9798C111.734 31.9798 110.734 32.838 110.434 33.72Z" fill="#00F0FF"/>
<path d="M123.686 44.7094H120.76V29.8582H123.586L123.686 31.2885H123.786C123.786 31.2885 124.786 29.5483 127.311 29.5483C130.137 29.5483 132.437 31.7653 132.437 34.9358C132.437 38.1062 130.112 40.3232 127.311 40.3232C124.786 40.3232 123.786 38.583 123.786 38.583H123.686V44.7094ZM126.511 37.844C128.111 37.844 129.437 36.6998 129.437 34.9596C129.437 33.2194 128.136 32.0752 126.511 32.0752C125.011 32.0752 123.686 33.2194 123.686 34.9596C123.686 36.676 125.011 37.844 126.511 37.844Z" fill="#00F0FF"/>
<path d="M145.013 34.7689V35.5317H136.837C137.037 36.8667 138.138 37.9155 140.163 37.9155C142.788 37.9155 143.888 36.7713 143.888 36.7713H144.188V39.179C144.188 39.179 142.588 40.3232 139.863 40.3232C136.437 40.3232 134.112 38.1062 134.112 34.9358C134.112 31.8606 136.537 29.5483 139.763 29.5483C142.988 29.5722 145.013 31.5031 145.013 34.7689ZM136.937 33.72H142.288C142.288 32.7665 141.388 31.9798 139.963 31.9798C138.263 31.9798 137.262 32.838 136.937 33.72Z" fill="#00F0FF"/>
<path d="M146.989 33.3146C146.989 31.2883 148.489 29.858 151.114 29.858H156.665V40.0369H153.739V36.7711H152.189L149.339 40.0369H145.863L149.189 36.485V36.3897C149.214 36.3897 146.989 35.7222 146.989 33.3146ZM151.639 32.075C150.639 32.075 150.039 32.5517 150.039 33.3146C150.039 34.0774 150.639 34.5541 151.639 34.5541H153.764V32.075H151.639Z" fill="#00F0FF"/>
<path d="M35.7238 41.5993C31.0651 44.1682 25.6186 45.1154 20.3113 44.2798C15.0039 43.4441 10.1636 40.8772 6.61409 37.0158L44.514 11.7334C47.4161 16.8233 48.1212 22.7953 46.479 28.3751C44.8367 33.9548 40.9772 38.7004 35.7238 41.5993ZM47.8926 13.2707C48.803 14.7784 49.5253 16.3829 50.0449 18.0513C51.4849 16.3754 52.2637 14.2699 52.2457 12.1017C52.2278 9.93345 51.4141 7.84 49.9465 6.18612C48.4789 4.53223 46.4504 3.42276 44.2145 3.05104C41.9787 2.67932 39.6771 3.06892 37.7111 4.15194C37.6606 4.17822 37.6125 4.20888 37.5621 4.23954C33.5554 1.51627 28.7483 0.076562 23.8315 0.127272C18.9147 0.177981 14.1412 1.7165 10.197 4.52177C6.25283 7.32704 3.3409 11.2546 1.87964 15.7403C0.418387 20.2259 0.48302 25.0386 2.06426 29.487L43.9318 10.7676C43.0538 9.39629 42.0224 8.12012 40.8558 6.96159L41.6833 6.5915C44.2075 8.39067 46.3205 10.6635 47.8926 13.2707Z" fill="#00F0FF"/>
</svg>

<svg width="230" height="45" fill="none" xmlns="http://www.w3.org/2000/svg"><path d="M84.38 21.586h-3.025v-5.768h-6.35v5.768h-3.026V7.57h3.026v5.673h6.35V7.57h3.026v14.016zm11.052-10.178h2.825v10.179h-2.825l-.1-1.43h-.1s-1 1.74-3.526 1.74c-2.825 0-5.125-2.217-5.125-5.388 0-3.17 2.325-5.387 5.125-5.387 2.525 0 3.526 1.74 3.526 1.74h.1l.1-1.454zm-2.926 2.217c-1.6 0-2.925 1.144-2.925 2.884s1.3 2.884 2.925 2.884c1.5 0 2.826-1.144 2.826-2.884s-1.325-2.884-2.826-2.884zm8.376 7.961V11.408h2.925v7.675h4.326v-7.675h2.925v7.675h1.6v5.102h-2.925v-2.599h-8.851zm17.377 0h-3.576V11.408h2.901v6.865l4.175-6.865h3.576v10.178h-2.926v-6.865l-4.15 6.865zm15.052.286c-3.625 0-5.95-2.312-5.95-5.387 0-3.075 2.325-5.387 5.95-5.387 3.626 0 5.951 2.312 5.951 5.387 0 3.075-2.325 5.387-5.951 5.387zm0-2.503c1.601 0 2.926-1.144 2.926-2.884s-1.3-2.884-2.926-2.884c-1.625 0-2.925 1.144-2.925 2.884s1.325 2.884 2.925 2.884zm10.877-1.716v3.933h-2.925V11.408h2.925v3.742h4.626v-3.742h2.925v10.178h-2.925v-3.933h-4.626zm18.476-6.245h2.825v10.179h-2.825l-.1-1.43h-.1s-1 1.74-3.525 1.74c-2.826 0-5.126-2.217-5.126-5.388 0-3.17 2.325-5.387 5.126-5.387 2.525 0 3.525 1.74 3.525 1.74h.1l.1-1.454zm-2.925 2.217c-1.6 0-2.926 1.144-2.926 2.884s1.301 2.884 2.926 2.884c1.5 0 2.825-1.144 2.825-2.884s-1.3-2.884-2.825-2.884zm12.303 3.027c-.325 3.361-1.601 4.6-4.426 4.887l-.5-2.503c1.15-.096 1.875-.763 2.025-2.408l.55-5.244h8.651v10.203h-2.925v-7.772h-3.025l-.35 2.837zm9.102-5.244h2.925v3.075h2.025c2.825 0 4.326 1.43 4.326 3.552 0 2.121-1.501 3.551-4.326 3.551h-4.925V11.408h-.025zm4.75 7.866c1 0 1.6-.477 1.6-1.24 0-.762-.6-1.24-1.6-1.24h-1.825v2.504h1.825v-.024zm9.45-1.621v3.933h-2.925V11.408h2.925v3.742h4.625v-3.742h2.926v10.178h-2.926v-3.933h-4.625zm18.751-6.245h2.825v10.179h-2.825l-.1-1.43h-.1s-1 1.74-3.526 1.74c-2.825 0-5.125-2.217-5.125-5.388 0-3.17 2.325-5.387 5.125-5.387 2.526 0 3.526 1.74 3.526 1.74h.1l.1-1.454zm-2.926 2.217c-1.6 0-2.925 1.144-2.925 2.884s1.3 2.884 2.925 2.884c1.501 0 2.826-1.144 2.826-2.884s-1.325-2.884-2.826-2.884zm8.227 1.239c0-2.026 1.501-3.457 4.126-3.457h5.576v10.18h-2.926V18.32h-1.55l-2.85 3.266h-3.476l3.326-3.551v-.096s-2.226-.667-2.226-3.075zm4.626-1.24c-1 0-1.6.477-1.6 1.24s.6 1.24 1.6 1.24h2.125v-2.48h-2.125zM75.105 35.437c-.325 3.36-1.6 4.6-4.426 4.887l-.5-2.503c1.15-.096 1.875-.763 2.025-2.408l.5-5.578h8.652v10.179H78.43v-7.772h-3.025l-.3 3.195zm14.5 4.886c-3.625 0-5.95-2.312-5.95-5.387 0-3.075 2.325-5.388 5.95-5.388 3.626 0 5.951 2.313 5.951 5.388 0 3.099-2.325 5.387-5.95 5.387zm0-2.479c1.6 0 2.926-1.144 2.926-2.884s-1.3-2.885-2.926-2.885c-1.6 0-2.925 1.144-2.925 2.885.025 1.716 1.325 2.884 2.925 2.884zm6.953-5.483v-2.503h9.976v2.503h-3.525v7.676h-2.926V32.36h-3.525zm21.927 2.408v.763h-8.151c.2 1.335 1.3 2.384 3.325 2.384 2.626 0 3.726-1.145 3.726-1.145h.3v2.408s-1.6 1.144-4.326 1.144c-3.425 0-5.75-2.217-5.75-5.387 0-3.075 2.425-5.388 5.65-5.388 3.226.024 5.226 1.955 5.226 5.22zm-8.051-1.049h5.351c0-.953-.901-1.74-2.326-1.74-1.725 0-2.725.858-3.025 1.74zm13.252 10.99h-2.926V29.857h2.826l.1 1.43h.1s1-1.74 3.525-1.74c2.826 0 5.126 2.217 5.126 5.388 0 3.17-2.325 5.387-5.126 5.387-2.525 0-3.525-1.74-3.525-1.74h-.1v6.126zm2.825-6.866c1.6 0 2.926-1.144 2.926-2.884s-1.301-2.885-2.926-2.885c-1.5 0-2.825 1.144-2.825 2.885 0 1.716 1.325 2.884 2.825 2.884zm18.502-3.075v.763h-8.176c.2 1.335 1.301 2.384 3.326 2.384 2.625 0 3.725-1.145 3.725-1.145h.3v2.408s-1.6 1.144-4.325 1.144c-3.426 0-5.751-2.217-5.751-5.387 0-3.075 2.425-5.388 5.651-5.388 3.225.024 5.25 1.955 5.25 5.22zm-8.076-1.049h5.351c0-.953-.9-1.74-2.325-1.74-1.7 0-2.701.858-3.026 1.74zm10.052-.405c0-2.027 1.5-3.457 4.125-3.457h5.551v10.179h-2.926V36.77h-1.55l-2.85 3.266h-3.476l3.326-3.552v-.095c.025 0-2.2-.668-2.2-3.075zm4.65-1.24c-1 0-1.6.477-1.6 1.24 0 .762.6 1.24 1.6 1.24h2.125v-2.48h-2.125zM35.724 41.6c-4.659 2.568-10.105 3.515-15.413 2.68-5.307-.836-10.147-3.403-13.697-7.264l37.9-25.283c2.902 5.09 3.607 11.062 1.965 16.642-1.642 5.58-5.502 10.325-10.755 13.224zm12.169-28.33a21.774 21.774 0 012.152 4.781 9.008 9.008 0 002.2-5.95c-.017-2.168-.83-4.261-2.298-5.915s-3.497-2.763-5.733-3.135a10.08 10.08 0 00-6.503 1.1c-.05.027-.099.058-.149.089C33.555 1.516 28.748.077 23.832.127c-4.917.051-9.69 1.59-13.635 4.395C6.253 7.327 3.341 11.255 1.88 15.74a21.276 21.276 0 00.184 13.747l41.868-18.72a22.352 22.352 0 00-3.076-3.805l.827-.37a22.456 22.456 0 016.21 6.679z" fill="#00F0FF"/></svg>
